X: 42150
T: Watchmaker, The
R: reel
M: 4/4
K: Aminor
cEAc BEGB|c~A3 cd ed|c2Ac BEGB|cedB A3B|
c2Ac BEGB|c~A3 cd ed|c2AG ~B3G|cedB A3B|
c2 ec ggeA|G3A D~G3|c2ec gedg|eaag aaaf|
gaag Tf4|eAce dBG2|ABcd ~e3d|c2BG Aded|

